packages/dnb-eufemia/assets/icons/download_medium.svg

<svg width="24" height="24" viewBox="0 0 24 24" fill="none" xmlns="http://www.w3.org/2000/svg">
<path d="M8.28033 11.7197C7.98744 11.4268 7.51256 11.4268 7.21967 11.7197C6.92678 12.0126 6.92678 12.4874 7.21967 12.7803L8.28033 11.7197ZM12 16.5L11.4697 17.0303C11.7626 17.3232 12.2374 17.3232 12.5303 17.0303L12 16.5ZM16.7803 12.7803C17.0732 12.4874 17.0732 12.0126 16.7803 11.7197C16.4874 11.4268 16.0126 11.4268 15.7197 11.7197L16.7803 12.7803ZM12.75 3C12.75 2.58579 12.4142 2.25 12 2.25C11.5858 2.25 11.25 2.58579 11.25 3H12.75ZM4 20.5C3.58579 20.5 3.25 20.8358 3.25 21.25C3.25 21.6642 3.58579 22 4 22V20.5ZM20 22C20.4142 22 20.75 21.6642 20.75 21.25C20.75 20.8358 20.4142 20.5 20 20.5V22ZM7.21967 12.7803L11.4697 17.0303L12.5303 15.9697L8.28033 11.7197L7.21967 12.7803ZM12.5303 17.0303L16.7803 12.7803L15.7197 11.7197L11.4697 15.9697L12.5303 17.0303ZM11.25 3V16.5H12.75V3H11.25ZM4 22H20V20.5H4V22Z" fill="black"/>
</svg>

<svg width="24" height="24" viewBox="0 0 24 24" fill="none" xmlns="http://www.w3.org/2000/svg"><path d="M8.28 11.72a.75.75 0 0 0-1.06 1.06l1.06-1.06ZM12 16.5l-.53.53a.75.75 0 0 0 1.06 0L12 16.5Zm4.78-3.72a.75.75 0 1 0-1.06-1.06l1.06 1.06ZM12.75 3a.75.75 0 0 0-1.5 0h1.5ZM4 20.5A.75.75 0 0 0 4 22v-1.5ZM20 22a.75.75 0 0 0 0-1.5V22ZM7.22 12.78l4.25 4.25 1.06-1.06-4.25-4.25-1.06 1.06Zm5.31 4.25 4.25-4.25-1.06-1.06-4.25 4.25 1.06 1.06ZM11.25 3v13.5h1.5V3h-1.5ZM4 22h16v-1.5H4V22Z" fill="#000"/></svg>
